styles/emoji-one/1f69f.svg

<svg xmlns="http://www.w3.org/2000/svg" viewBox="0 0 64 64" enable-background="new 0 0 64 64"><g fill="#94989b"><path d="m2 9.5h60v1.875h-60z"/><path d="m2 17h60v1.875h-60z"/></g><g fill="#63686b"><path d="m2 11.375h60v5.625h-60z"/><circle cx="54.5" cy="5.75" r="3.75"/></g><circle fill="#3e4347" cx="54.5" cy="5.75" r="2.344"/><circle fill="#63686b" cx="26.375" cy="5.75" r="3.75"/><circle fill="#3e4347" cx="26.375" cy="5.75" r="2.344"/><circle fill="#63686b" cx="35.75" cy="5.75" r="3.75"/><g fill="#3e4347"><circle cx="35.75" cy="5.75" r="2.344"/><path d="m28.25 2h5.625v16.875h-5.625z"/></g><path fill="#63686b" d="m29.19 2h3.75v16.875h-3.75z"/><path fill="#3e4347" d="m56.38 2h5.625v16.875h-5.625z"/><g fill="#63686b"><path d="m57.31 2h3.75v16.875h-3.75z"/><path d="m43.25 27.313h15v24.374h-15z"/></g><path fill="#3e4347" d="m45.13 29.19h11.25v20.624h-11.25z"/><path fill="#63686b" d="m24.5 27.313h15v24.374h-15z"/><path fill="#3e4347" d="m26.375 29.19h11.25v20.624h-11.25z"/><path fill="#63686b" d="m20.75 27.313h-7.5l-7.5 24.374h15z"/><path fill="#3e4347" d="m18.875 29.19v20.622h-11.25l7.505-20.622z"/><g fill="#ed4c5c"><path d="m16.15 23.563c-5.598 0-6.65 3.75-6.65 3.75l-7.5 24.375c0 7.5 0 10.312 14.808 10.312h45.19v-10.312-24.375-3.75c0 0-34.05 0-45.85 0m23.35 3.75v24.375h-15v-24.375h15m-33.75 24.375l7.5-24.375h7.5v24.375h-15m52.5 0h-15v-24.375h15v24.375"/><path d="m24.5 18.875h37.5v3.75h-37.5z"/></g><path fill="#63686b" d="m28.25 22.625h33.75v.938h-33.75z"/><path fill="#fff" d="m2.938 53.12h2.813v2.813h-2.813z"/><path fill="#ffce31" d="m5.75 53.12h5.625v2.813h-5.625z"/><g fill="#94989b"><path d="m25.438 4.813h11.25v1.875h-11.25z"/><path d="m53.56 4.813h8.438v1.875h-8.438z"/></g></svg>

<svg xmlns="http://www.w3.org/2000/svg" viewBox="0 0 64 64"><g fill="#94989b"><path d="M2 9.5h60v1.875H2zM2 17h60v1.875H2z"/></g><g fill="#63686b"><path d="M2 11.375h60V17H2z"/><circle cx="54.5" cy="5.75" r="3.75"/></g><circle fill="#3e4347" cx="54.5" cy="5.75" r="2.344"/><circle fill="#63686b" cx="26.375" cy="5.75" r="3.75"/><circle fill="#3e4347" cx="26.375" cy="5.75" r="2.344"/><circle fill="#63686b" cx="35.75" cy="5.75" r="3.75"/><g fill="#3e4347"><circle cx="35.75" cy="5.75" r="2.344"/><path d="M28.25 2h5.625v16.875H28.25z"/></g><path fill="#63686b" d="M29.19 2h3.75v16.875h-3.75z"/><path fill="#3e4347" d="M56.38 2h5.625v16.875H56.38z"/><g fill="#63686b"><path d="M57.31 2h3.75v16.875h-3.75zM43.25 27.313h15v24.374h-15z"/></g><path fill="#3e4347" d="M45.13 29.19h11.25v20.624H45.13z"/><path fill="#63686b" d="M24.5 27.313h15v24.374h-15z"/><path fill="#3e4347" d="M26.375 29.19h11.25v20.624h-11.25z"/><path fill="#63686b" d="M20.75 27.313h-7.5l-7.5 24.374h15z"/><path fill="#3e4347" d="M18.875 29.19v20.622H7.625L15.13 29.19z"/><g fill="#ed4c5c"><path d="M16.15 23.563c-5.598 0-6.65 3.75-6.65 3.75L2 51.688C2 59.188 2 62 16.808 62h45.19V23.563h-45.85m23.35 3.75v24.375h-15V27.313h15M5.748 51.688l7.5-24.375h7.5v24.375h-15m52.5 0h-15V27.313h15v24.375M24.5 18.875H62v3.75H24.5z"/></g><path fill="#63686b" d="M28.25 22.625H62v.938H28.25z"/><path fill="#fff" d="M2.938 53.12h2.813v2.813H2.938z"/><path fill="#ffce31" d="M5.75 53.12h5.625v2.813H5.75z"/><g fill="#94989b"><path d="M25.438 4.813h11.25v1.875h-11.25zM53.56 4.813h8.438v1.875H53.56z"/></g></svg>
